modules/micon/icons/cc-diners-club.svg

<svg width="1792" height="1792" viewBox="0 0 1792 1792" xmlns="http://www.w3.org/2000/svg"><path d="M602 1241v-693q-106 41-172 135.5t-66 211.5 66 211.5 172 134.5zm504-346q0-117-66-211.5t-172-135.5v694q106-41 172-135.5t66-211.5zm215 0q0 159-78.5 294t-213.5 213.5-294 78.5q-119 0-227.5-46.5t-187-125-125-187-46.5-227.5q0-159 78.5-294t213.5-213.5 294-78.5 294 78.5 213.5 213.5 78.5 294zm383 7q0-139-55.5-261.5t-147.5-205.5-213.5-131-252.5-48h-301q-176 0-323.5 81t-235 230-87.5 335q0 171 87 317.5t236 231.5 323 85h301q129 0 251.5-50.5t214.5-135 147.5-202.5 55.5-246zm344-646v1280q0 52-38 90t-90 38h-2048q-52 0-90-38t-38-90v-1280q0-52 38-90t90-38h2048q52 0 90 38t38 90z"/></svg>

<svg width="1792" height="1792" viewBox="0 0 1792 1792" xmlns="http://www.w3.org/2000/svg"><path d="M602 1241V548q-106 41-172 135.5T364 895t66 211.5T602 1241zm504-346q0-117-66-211.5T868 548v694q106-41 172-135.5t66-211.5zm215 0q0 159-78.5 294T1029 1402.5 735 1481q-119 0-227.5-46.5t-187-125-125-187T149 895q0-159 78.5-294T441 387.5 735 309t294 78.5T1242.5 601t78.5 294zm383 7q0-139-55.5-261.5T1501 435t-213.5-131-252.5-48H734q-176 0-323.5 81t-235 230T88 902q0 171 87 317.5T411 1451t323 85h301q129 0 251.5-50.5t214.5-135 147.5-202.5 55.5-246zm344-646v1280q0 52-38 90t-90 38H-128q-52 0-90-38t-38-90V256q0-52 38-90t90-38h2048q52 0 90 38t38 90z"/></svg>
